X: 1
T: The Gravel Walks
R: jig
M: 6/8
L: 1/8
K: Ador
A2e cAA|~A3 dBG|A2e cee|g2e dBG|
A2e cAA|~A3 dBG|ABc def|g2e dBG:|
|:A2a gAf|AeA dBG|A2a gef|~g3 dBG|
A2a gAf|AeA dBG|ABc def|~g3 dBG:|
"Variations"
A2e cAe|AeA dBG|A2e cAe|~g3 dBG|
A2e cAe|AeA dBG|ABc def|g2e dBG:|
|:A2a gAf|AeA dBG|A2a gef|g2e dBG|
A2a gAf|AeA dBG|ABc def|~g3 dBG:|


Tune 674	Setting 13721

